docs/services/img/plantuml/assetserver/asset_server_http_get_transaction.svg

<svg contentStyleType="text/css" height="675" preserveAspectRatio="none" viewBox="0 0 671 675" width="671" xmlns="http://www.w3.org/2000/svg" zoomAndPan="magnify"><g fill="#fff"><path d="m347 84.2871h10v206.8184h-10z" stroke="#181818"/><path d="m347 320.416h10v269.4395h-10z" stroke="#181818"/><path d="m501.5 113.5977h10v485.2578h-10z" stroke="#181818"/><path d="m506.5 398.3477h10v200.5078h-10z" stroke="#181818"/><path d="m596 225.4844h10v29.3105h-10z" stroke="#181818"/><path d="m596 510.2344h10v29.3105h-10z" stroke="#181818"/></g><path d="m248 128.5977h397v134.1973h-397z" fill="none" stroke="#000" stroke-width="1.5"/><path d="m228 335.416h437v226.1289h-437z" fill="none" stroke="#000" stroke-width="1.5"/><path d="m238 359.7266h417v194.8184h-417z" fill="none" stroke="#000" stroke-width="1.5"/><path d="m248 413.3477h397v134.1973h-397z" fill="none" stroke="#000" stroke-width="1.5"/><path d="m52 52.9766v554.8789" stroke="#181818" stroke-dasharray="5 5" stroke-width=".5"/><path d="m352 52.9766v554.8789" stroke="#181818" stroke-dasharray="5 5" stroke-width=".5"/><path d="m506 52.9766v554.8789" stroke="#181818" stroke-dasharray="5 5" stroke-width=".5"/><path d="m601 52.9766v554.8789" stroke="#181818" stroke-dasharray="5 5" stroke-width=".5"/><rect fill="#e2e2f0" height="30.4883" rx="2.5" stroke="#181818" stroke-width=".5" width="94" x="5" y="21.4883"/><text font-family="sans-serif" font-size="14" lengthAdjust="spacing" textLength="80" x="12" y="42.0234">HTTP Client</text><rect fill="#e2e2f0" height="30.4883" rx="2.5" stroke="#181818" stroke-width=".5" width="94" x="5" y="606.8555"/><text font-family="sans-serif" font-size="14" lengthAdjust="spacing" textLength="80" x="12" y="627.3906">HTTP Client</text><rect fill="#e2e2f0" height="46.9766" rx="2.5" stroke="#181818" stroke-width=".5" width="188" x="258" y="5"/><text font-family="sans-serif" font-size="14" lengthAdjust="spacing" textLength="83" x="310.5" y="25.5352">HTTP Server</text><text font-family="sans-serif" font-size="14" lengthAdjust="spacing" textLength="174" x="265" y="42.0234">(asset/http_impl/http.go)</text><rect fill="#e2e2f0" height="46.9766" rx="2.5" stroke="#181818" stroke-width=".5" width="188" x="258" y="606.8555"/><text font-family="sans-serif" font-size="14" lengthAdjust="spacing" textLength="83" x="310.5" y="627.3906">HTTP Server</text><text font-family="sans-serif" font-size="14" lengthAdjust="spacing" textLength="174" x="265" y="643.8789">(asset/http_impl/http.go)</text><rect fill="#e2e2f0" height="30.4883" rx="2.5" stroke="#181818" stroke-width=".5" width="101" x="456" y="21.4883"/><text font-family="sans-serif" font-size="14" lengthAdjust="spacing" textLength="87" x="463" y="42.0234">TxMetaStore</text><rect fill="#e2e2f0" height="30.4883" rx="2.5" stroke="#181818" stroke-width=".5" width="101" x="456" y="606.8555"/><text font-family="sans-serif" font-size="14" lengthAdjust="spacing" textLength="87" x="463" y="627.3906">TxMetaStore</text><rect fill="#e2e2f0" height="30.4883" rx="2.5" stroke="#181818" stroke-width=".5" width="68" x="567" y="21.4883"/><text font-family="sans-serif" font-size="14" lengthAdjust="spacing" textLength="54" x="574" y="42.0234">TxStore</text><rect fill="#e2e2f0" height="30.4883" rx="2.5" stroke="#181818" stroke-width=".5" width="68" x="567" y="606.8555"/><text font-family="sans-serif" font-size="14" lengthAdjust="spacing" textLength="54" x="574" y="627.3906">TxStore</text><g stroke="#181818"><g fill="#fff"><path d="m347 84.2871h10v206.8184h-10z"/><path d="m347 320.416h10v269.4395h-10z"/><path d="m501.5 113.5977h10v485.2578h-10z"/><path d="m506.5 398.3477h10v200.5078h-10z"/><path d="m596 225.4844h10v29.3105h-10z"/><path d="m596 510.2344h10v29.3105h-10z"/></g><path d="m335 80.2871 10 4-10 4 4-4z" fill="#181818"/><path d="m52 84.2871h289"/></g><text font-family="sans-serif" font-size="13" lengthAdjust="spacing" textLength="276" x="59" y="79.5449">GET /tx/:hash (BINARY_STREAM, HEX, JSON)</text><path d="m489.5 109.5977 10 4-10 4 4-4z" fill="#181818" stroke="#181818"/><path d="m357 113.5977h138.5" stroke="#181818"/><text font-family="sans-serif" font-size="13" lengthAdjust="spacing" textLength="87" x="364" y="108.8555">Get(ctx, hash)</text><path d="m248 128.5977h62v7.3105l-10 10h-52z" fill="#eee" stroke="#000" stroke-width="1.5"/><path d="m248 128.5977h397v134.1973h-397z" fill="none" stroke="#000" stroke-width="1.5"/><text font-family="sans-serif" font-size="13" font-weight="bold" lengthAdjust="spacing" textLength="17" x="263" y="142.166">alt</text><text font-family="sans-serif" font-size="11" font-weight="bold" lengthAdjust="spacing" textLength="112" x="325" y="141.2324">[MetaStore has data]</text><path d="m368 163.2188-10 4 10 4-4-4z" fill="#181818" stroke="#181818"/><path d="m362 167.2188h138.5" stroke="#181818" stroke-dasharray="2 2"/><text font-family="sans-serif" font-size="13" lengthAdjust="spacing" textLength="100" x="374" y="162.4766">transactionData</text><path d="m248 176.2188h397" stroke="#000" stroke-dasharray="2 2"/><text font-family="sans-serif" font-size="11" font-weight="bold" lengthAdjust="spacing" textLength="171" x="253" y="186.8535">[MetaStore does not have data]</text><path d="m368 192.1738-10 4 10 4-4-4z" fill="#181818" stroke="#181818"/><path d="m362 196.1738h138.5" stroke="#181818" stroke-dasharray="2 2"/><path d="m584 221.4844 10 4-10 4 4-4z" fill="#181818" stroke="#181818"/><path d="m357 225.4844h233" stroke="#181818"/><text font-family="sans-serif" font-size="13" lengthAdjust="spacing" textLength="87" x="364" y="220.7422">Get(ctx, hash)</text><path d="m368 250.7949-10 4 10 4-4-4z" fill="#181818" stroke="#181818"/><path d="m362 254.7949h238" stroke="#181818" stroke-dasharray="2 2"/><text font-family="sans-serif" font-size="13" lengthAdjust="spacing" textLength="100" x="374" y="250.0527">transactionData</text><path d="m63 287.1055-10 4 10 4-4-4z" fill="#181818" stroke="#181818"/><path d="m57 291.1055h294" stroke="#181818" stroke-dasharray="2 2"/><text font-family="sans-serif" font-size="13" lengthAdjust="spacing" textLength="100" x="69" y="286.3633">transactionData</text><path d="m335 316.416 10 4-10 4 4-4z" fill="#181818" stroke="#181818"/><path d="m52 320.416h289" stroke="#181818"/><text font-family="sans-serif" font-size="13" lengthAdjust="spacing" textLength="163" x="59" y="315.6738">POST /txs (List of hashes)</text><path d="m228 335.416h62v7.3106l-10 10h-52z" fill="#eee" stroke="#000" stroke-width="1.5"/><path d="m228 335.416h437v226.1289h-437z" fill="none" stroke="#000" stroke-width="1.5"/><text font-family="sans-serif" font-size="13" font-weight="bold" lengthAdjust="spacing" textLength="17" x="243" y="348.9844">alt</text><text font-family="sans-serif" font-size="11" font-weight="bold" lengthAdjust="spacing" textLength="127" x="305" y="348.0508">[For Each Hash in List]</text><path d="m238 359.7266h74v7.3105l-10 10h-64z" fill="#eee" stroke="#000" stroke-width="1.5"/><path d="m238 359.7266h417v194.8184h-417z" fill="none" stroke="#000" stroke-width="1.5"/><text font-family="sans-serif" font-size="13" font-weight="bold" lengthAdjust="spacing" textLength="29" x="253" y="373.2949">loop</text><path d="m494.5 394.3477 10 4-10 4 4-4z" fill="#181818" stroke="#181818"/><path d="m357 398.3477h143.5" stroke="#181818"/><text font-family="sans-serif" font-size="13" lengthAdjust="spacing" textLength="87" x="364" y="393.6055">Get(ctx, hash)</text><path d="m248 413.3477h62v7.3105l-10 10h-52z" fill="#eee" stroke="#000" stroke-width="1.5"/><path d="m248 413.3477h397v134.1973h-397z" fill="none" stroke="#000" stroke-width="1.5"/><text font-family="sans-serif" font-size="13" font-weight="bold" lengthAdjust="spacing" textLength="17" x="263" y="426.916">alt</text><text font-family="sans-serif" font-size="11" font-weight="bold" lengthAdjust="spacing" textLength="112" x="325" y="425.9824">[MetaStore has data]</text><path d="m368 447.9688-10 4 10 4-4-4z" fill="#181818" stroke="#181818"/><path d="m362 451.9688h143.5" stroke="#181818" stroke-dasharray="2 2"/><text font-family="sans-serif" font-size="13" lengthAdjust="spacing" textLength="100" x="374" y="447.2266">transactionData</text><path d="m248 460.9688h397" stroke="#000" stroke-dasharray="2 2"/><text font-family="sans-serif" font-size="11" font-weight="bold" lengthAdjust="spacing" textLength="171" x="253" y="471.6035">[MetaStore does not have data]</text><path d="m368 476.9238-10 4 10 4-4-4z" fill="#181818" stroke="#181818"/><path d="m362 480.9238h143.5" stroke="#181818" stroke-dasharray="2 2"/><path d="m584 506.2344 10 4-10 4 4-4z" fill="#181818" stroke="#181818"/><path d="m357 510.2344h233" stroke="#181818"/><text font-family="sans-serif" font-size="13" lengthAdjust="spacing" textLength="87" x="364" y="505.4922">Get(ctx, hash)</text><path d="m368 535.5449-10 4 10 4-4-4z" fill="#181818" stroke="#181818"/><path d="m362 539.5449h238" stroke="#181818" stroke-dasharray="2 2"/><text font-family="sans-serif" font-size="13" lengthAdjust="spacing" textLength="100" x="374" y="534.8027">transactionData</text><path d="m63 585.8555-10 4 10 4-4-4z" fill="#181818" stroke="#181818"/><path d="m57 589.8555h294" stroke="#181818" stroke-dasharray="2 2"/><text font-family="sans-serif" font-size="13" lengthAdjust="spacing" textLength="121" x="69" y="585.1133">All transactionData</text><text fill="#888" font-family="sans-serif" font-size="10" lengthAdjust="spacing" textLength="149" y="665.5">Last Modified On: 4-Dec-2023</text></svg>

<?xml version="1.0" encoding="us-ascii" standalone="no"?><svg xmlns="http://www.w3.org/2000/svg" xmlns:xlink="http://www.w3.org/1999/xlink" contentStyleType="text/css" height="675px" preserveAspectRatio="none" style="width:663px;height:675px;background:#FFFFFF;" version="1.1" viewBox="0 0 663 675" width="663px" zoomAndPan="magnify"><defs/><g><rect fill="#FFFFFF" height="206.8184" style="stroke:#181818;stroke-width:1.0;" width="10" x="347" y="84.2871"/><rect fill="#FFFFFF" height="269.4395" style="stroke:#181818;stroke-width:1.0;" width="10" x="347" y="320.416"/><rect fill="#FFFFFF" height="485.2578" style="stroke:#181818;stroke-width:1.0;" width="10" x="497.5" y="113.5977"/><rect fill="#FFFFFF" height="200.5078" style="stroke:#181818;stroke-width:1.0;" width="10" x="502.5" y="398.3477"/><rect fill="#FFFFFF" height="29.3105" style="stroke:#181818;stroke-width:1.0;" width="10" x="588" y="225.4844"/><rect fill="#FFFFFF" height="29.3105" style="stroke:#181818;stroke-width:1.0;" width="10" x="588" y="510.2344"/><rect fill="none" height="134.1973" style="stroke:#000000;stroke-width:1.5;" width="389" x="248" y="128.5977"/><rect fill="none" height="226.1289" style="stroke:#000000;stroke-width:1.5;" width="429" x="228" y="335.416"/><rect fill="none" height="194.8184" style="stroke:#000000;stroke-width:1.5;" width="409" x="238" y="359.7266"/><rect fill="none" height="134.1973" style="stroke:#000000;stroke-width:1.5;" width="389" x="248" y="413.3477"/><line style="stroke:#181818;stroke-width:0.5;stroke-dasharray:5.0,5.0;" x1="52" x2="52" y1="52.9766" y2="607.8555"/><line style="stroke:#181818;stroke-width:0.5;stroke-dasharray:5.0,5.0;" x1="352" x2="352" y1="52.9766" y2="607.8555"/><line style="stroke:#181818;stroke-width:0.5;stroke-dasharray:5.0,5.0;" x1="502" x2="502" y1="52.9766" y2="607.8555"/><line style="stroke:#181818;stroke-width:0.5;stroke-dasharray:5.0,5.0;" x1="593" x2="593" y1="52.9766" y2="607.8555"/><rect fill="#E2E2F0" height="30.4883" rx="2.5" ry="2.5" style="stroke:#181818;stroke-width:0.5;" width="94" x="5" y="21.4883"/><text fill="#000000" font-family="sans-serif" font-size="14" lengthAdjust="spacing" textLength="80" x="12" y="42.0234">HTTP Client</text><rect fill="#E2E2F0" height="30.4883" rx="2.5" ry="2.5" style="stroke:#181818;stroke-width:0.5;" width="94" x="5" y="606.8555"/><text fill="#000000" font-family="sans-serif" font-size="14" lengthAdjust="spacing" textLength="80" x="12" y="627.3906">HTTP Client</text><rect fill="#E2E2F0" height="46.9766" rx="2.5" ry="2.5" style="stroke:#181818;stroke-width:0.5;" width="188" x="258" y="5"/><text fill="#000000" font-family="sans-serif" font-size="14" lengthAdjust="spacing" textLength="83" x="310.5" y="25.5352">HTTP Server</text><text fill="#000000" font-family="sans-serif" font-size="14" lengthAdjust="spacing" textLength="174" x="265" y="42.0234">(asset/http_impl/http.go)</text><rect fill="#E2E2F0" height="46.9766" rx="2.5" ry="2.5" style="stroke:#181818;stroke-width:0.5;" width="188" x="258" y="606.8555"/><text fill="#000000" font-family="sans-serif" font-size="14" lengthAdjust="spacing" textLength="83" x="310.5" y="627.3906">HTTP Server</text><text fill="#000000" font-family="sans-serif" font-size="14" lengthAdjust="spacing" textLength="174" x="265" y="643.8789">(asset/http_impl/http.go)</text><rect fill="#E2E2F0" height="30.4883" rx="2.5" ry="2.5" style="stroke:#181818;stroke-width:0.5;" width="93" x="456" y="21.4883"/><text fill="#000000" font-family="sans-serif" font-size="14" lengthAdjust="spacing" textLength="79" x="463" y="42.0234">UTXO Store</text><rect fill="#E2E2F0" height="30.4883" rx="2.5" ry="2.5" style="stroke:#181818;stroke-width:0.5;" width="93" x="456" y="606.8555"/><text fill="#000000" font-family="sans-serif" font-size="14" lengthAdjust="spacing" textLength="79" x="463" y="627.3906">UTXO Store</text><rect fill="#E2E2F0" height="30.4883" rx="2.5" ry="2.5" style="stroke:#181818;stroke-width:0.5;" width="68" x="559" y="21.4883"/><text fill="#000000" font-family="sans-serif" font-size="14" lengthAdjust="spacing" textLength="54" x="566" y="42.0234">TxStore</text><rect fill="#E2E2F0" height="30.4883" rx="2.5" ry="2.5" style="stroke:#181818;stroke-width:0.5;" width="68" x="559" y="606.8555"/><text fill="#000000" font-family="sans-serif" font-size="14" lengthAdjust="spacing" textLength="54" x="566" y="627.3906">TxStore</text><rect fill="#FFFFFF" height="206.8184" style="stroke:#181818;stroke-width:1.0;" width="10" x="347" y="84.2871"/><rect fill="#FFFFFF" height="269.4395" style="stroke:#181818;stroke-width:1.0;" width="10" x="347" y="320.416"/><rect fill="#FFFFFF" height="485.2578" style="stroke:#181818;stroke-width:1.0;" width="10" x="497.5" y="113.5977"/><rect fill="#FFFFFF" height="200.5078" style="stroke:#181818;stroke-width:1.0;" width="10" x="502.5" y="398.3477"/><rect fill="#FFFFFF" height="29.3105" style="stroke:#181818;stroke-width:1.0;" width="10" x="588" y="225.4844"/><rect fill="#FFFFFF" height="29.3105" style="stroke:#181818;stroke-width:1.0;" width="10" x="588" y="510.2344"/><polygon fill="#181818" points="335,80.2871,345,84.2871,335,88.2871,339,84.2871" style="stroke:#181818;stroke-width:1.0;"/><line style="stroke:#181818;stroke-width:1.0;" x1="52" x2="341" y1="84.2871" y2="84.2871"/><text fill="#000000" font-family="sans-serif" font-size="13" lengthAdjust="spacing" textLength="276" x="59" y="79.5449">GET /tx/:hash (BINARY_STREAM, HEX, JSON)</text><polygon fill="#181818" points="485.5,109.5977,495.5,113.5977,485.5,117.5977,489.5,113.5977" style="stroke:#181818;stroke-width:1.0;"/><line style="stroke:#181818;stroke-width:1.0;" x1="357" x2="491.5" y1="113.5977" y2="113.5977"/><text fill="#000000" font-family="sans-serif" font-size="13" lengthAdjust="spacing" textLength="87" x="364" y="108.8555">Get(ctx, hash)</text><path d="M248,128.5977 L310,128.5977 L310,135.9082 L300,145.9082 L248,145.9082 L248,128.5977 " fill="#EEEEEE" style="stroke:#000000;stroke-width:1.5;"/><rect fill="none" height="134.1973" style="stroke:#000000;stroke-width:1.5;" width="389" x="248" y="128.5977"/><text fill="#000000" font-family="sans-serif" font-size="13" font-weight="bold" lengthAdjust="spacing" textLength="17" x="263" y="142.166">alt</text><text fill="#000000" font-family="sans-serif" font-size="11" font-weight="bold" lengthAdjust="spacing" textLength="118" x="325" y="141.2324">[UTXOStore has data]</text><polygon fill="#181818" points="368,163.2188,358,167.2188,368,171.2188,364,167.2188" style="stroke:#181818;stroke-width:1.0;"/><line style="stroke:#181818;stroke-width:1.0;stroke-dasharray:2.0,2.0;" x1="362" x2="496.5" y1="167.2188" y2="167.2188"/><text fill="#000000" font-family="sans-serif" font-size="13" lengthAdjust="spacing" textLength="100" x="374" y="162.4766">transactionData</text><line style="stroke:#000000;stroke-width:1.0;stroke-dasharray:2.0,2.0;" x1="248" x2="637" y1="176.2188" y2="176.2188"/><text fill="#000000" font-family="sans-serif" font-size="11" font-weight="bold" lengthAdjust="spacing" textLength="177" x="253" y="186.8535">[UTXOStore does not have data]</text><polygon fill="#181818" points="368,192.1738,358,196.1738,368,200.1738,364,196.1738" style="stroke:#181818;stroke-width:1.0;"/><line style="stroke:#181818;stroke-width:1.0;stroke-dasharray:2.0,2.0;" x1="362" x2="496.5" y1="196.1738" y2="196.1738"/><polygon fill="#181818" points="576,221.4844,586,225.4844,576,229.4844,580,225.4844" style="stroke:#181818;stroke-width:1.0;"/><line style="stroke:#181818;stroke-width:1.0;" x1="357" x2="582" y1="225.4844" y2="225.4844"/><text fill="#000000" font-family="sans-serif" font-size="13" lengthAdjust="spacing" textLength="87" x="364" y="220.7422">Get(ctx, hash)</text><polygon fill="#181818" points="368,250.7949,358,254.7949,368,258.7949,364,254.7949" style="stroke:#181818;stroke-width:1.0;"/><line style="stroke:#181818;stroke-width:1.0;stroke-dasharray:2.0,2.0;" x1="362" x2="592" y1="254.7949" y2="254.7949"/><text fill="#000000" font-family="sans-serif" font-size="13" lengthAdjust="spacing" textLength="100" x="374" y="250.0527">transactionData</text><polygon fill="#181818" points="63,287.1055,53,291.1055,63,295.1055,59,291.1055" style="stroke:#181818;stroke-width:1.0;"/><line style="stroke:#181818;stroke-width:1.0;stroke-dasharray:2.0,2.0;" x1="57" x2="351" y1="291.1055" y2="291.1055"/><text fill="#000000" font-family="sans-serif" font-size="13" lengthAdjust="spacing" textLength="100" x="69" y="286.3633">transactionData</text><polygon fill="#181818" points="335,316.416,345,320.416,335,324.416,339,320.416" style="stroke:#181818;stroke-width:1.0;"/><line style="stroke:#181818;stroke-width:1.0;" x1="52" x2="341" y1="320.416" y2="320.416"/><text fill="#000000" font-family="sans-serif" font-size="13" lengthAdjust="spacing" textLength="163" x="59" y="315.6738">POST /txs (List of hashes)</text><path d="M228,335.416 L290,335.416 L290,342.7266 L280,352.7266 L228,352.7266 L228,335.416 " fill="#EEEEEE" style="stroke:#000000;stroke-width:1.5;"/><rect fill="none" height="226.1289" style="stroke:#000000;stroke-width:1.5;" width="429" x="228" y="335.416"/><text fill="#000000" font-family="sans-serif" font-size="13" font-weight="bold" lengthAdjust="spacing" textLength="17" x="243" y="348.9844">alt</text><text fill="#000000" font-family="sans-serif" font-size="11" font-weight="bold" lengthAdjust="spacing" textLength="127" x="305" y="348.0508">[For Each Hash in List]</text><path d="M238,359.7266 L312,359.7266 L312,367.0371 L302,377.0371 L238,377.0371 L238,359.7266 " fill="#EEEEEE" style="stroke:#000000;stroke-width:1.5;"/><rect fill="none" height="194.8184" style="stroke:#000000;stroke-width:1.5;" width="409" x="238" y="359.7266"/><text fill="#000000" font-family="sans-serif" font-size="13" font-weight="bold" lengthAdjust="spacing" textLength="29" x="253" y="373.2949">loop</text><polygon fill="#181818" points="490.5,394.3477,500.5,398.3477,490.5,402.3477,494.5,398.3477" style="stroke:#181818;stroke-width:1.0;"/><line style="stroke:#181818;stroke-width:1.0;" x1="357" x2="496.5" y1="398.3477" y2="398.3477"/><text fill="#000000" font-family="sans-serif" font-size="13" lengthAdjust="spacing" textLength="87" x="364" y="393.6055">Get(ctx, hash)</text><path d="M248,413.3477 L310,413.3477 L310,420.6582 L300,430.6582 L248,430.6582 L248,413.3477 " fill="#EEEEEE" style="stroke:#000000;stroke-width:1.5;"/><rect fill="none" height="134.1973" style="stroke:#000000;stroke-width:1.5;" width="389" x="248" y="413.3477"/><text fill="#000000" font-family="sans-serif" font-size="13" font-weight="bold" lengthAdjust="spacing" textLength="17" x="263" y="426.916">alt</text><text fill="#000000" font-family="sans-serif" font-size="11" font-weight="bold" lengthAdjust="spacing" textLength="122" x="325" y="425.9824">[UTXO Store has data]</text><polygon fill="#181818" points="368,447.9688,358,451.9688,368,455.9688,364,451.9688" style="stroke:#181818;stroke-width:1.0;"/><line style="stroke:#181818;stroke-width:1.0;stroke-dasharray:2.0,2.0;" x1="362" x2="501.5" y1="451.9688" y2="451.9688"/><text fill="#000000" font-family="sans-serif" font-size="13" lengthAdjust="spacing" textLength="100" x="374" y="447.2266">transactionData</text><line style="stroke:#000000;stroke-width:1.0;stroke-dasharray:2.0,2.0;" x1="248" x2="637" y1="460.9688" y2="460.9688"/><text fill="#000000" font-family="sans-serif" font-size="11" font-weight="bold" lengthAdjust="spacing" textLength="181" x="253" y="471.6035">[UTXO Store does not have data]</text><polygon fill="#181818" points="368,476.9238,358,480.9238,368,484.9238,364,480.9238" style="stroke:#181818;stroke-width:1.0;"/><line style="stroke:#181818;stroke-width:1.0;stroke-dasharray:2.0,2.0;" x1="362" x2="501.5" y1="480.9238" y2="480.9238"/><polygon fill="#181818" points="576,506.2344,586,510.2344,576,514.2344,580,510.2344" style="stroke:#181818;stroke-width:1.0;"/><line style="stroke:#181818;stroke-width:1.0;" x1="357" x2="582" y1="510.2344" y2="510.2344"/><text fill="#000000" font-family="sans-serif" font-size="13" lengthAdjust="spacing" textLength="87" x="364" y="505.4922">Get(ctx, hash)</text><polygon fill="#181818" points="368,535.5449,358,539.5449,368,543.5449,364,539.5449" style="stroke:#181818;stroke-width:1.0;"/><line style="stroke:#181818;stroke-width:1.0;stroke-dasharray:2.0,2.0;" x1="362" x2="592" y1="539.5449" y2="539.5449"/><text fill="#000000" font-family="sans-serif" font-size="13" lengthAdjust="spacing" textLength="100" x="374" y="534.8027">transactionData</text><polygon fill="#181818" points="63,585.8555,53,589.8555,63,593.8555,59,589.8555" style="stroke:#181818;stroke-width:1.0;"/><line style="stroke:#181818;stroke-width:1.0;stroke-dasharray:2.0,2.0;" x1="57" x2="351" y1="589.8555" y2="589.8555"/><text fill="#000000" font-family="sans-serif" font-size="13" lengthAdjust="spacing" textLength="121" x="69" y="585.1133">All transactionData</text><text fill="#888888" font-family="sans-serif" font-size="10" lengthAdjust="spacing" textLength="158" x="0" y="665.5">Last Modified On: 12-June-2024</text><!--SRC=[bPHHJy8m58NVzojkV14I42K-yM22YY81CMucc9YGXjr9azBEzKBu-ROT6vr3nBwiMyyzksVtorAM4L_mb4c2is4KlS2Tu2Zf39ZUROEqfWanss3s8HjCQwJEaYYTyrKgtExYKpLTkPNcogh5MpIRGaWgGoUpj-wkgegsUqb-79p3uo223B_Mg0aIbG43pUMdGA2CISqMn9K4BY7cIOAPQTwgLenqa6U1zetN5lISOOUsdTwIwIKqRf-U-w_lyp1w7VGdBHWEPYqOXTFdPc2zDupGJ-Kv6TyoXxL5QYnesm9hwnNlip91NeMHGSo81M3M_d7xPxjUp7ihHw4zKuWLQf2AZDy6_pPqXzKGlmImmZ947i0-Eh5BAutnHptAkF81ZSbkHdK3hzZhtl3mCWshGApMWdXQ1UBNuRjgCtqDZJ4t1YfnSL4V7hSTsODvnu0jbZ2ql1ZIRA4BA9HAtQR-KO-GKHGS8AGysf421r0frZ-GAKfATE0eEt-zeI8wcQLQx6haVx9Lh1fZPLR3Md4znbrVY5FP4vXOuXGPZp4py4oK-UbmZ64gUt3LRO_M4jlTo-vry0q0]--></g></svg>
